X: 2440
M: 2/4
L: 1/16
K: G
a2AA A2df | a2AA A2df | a2AA A2A2 | dAdf eA^ce |\
a2AA A2df | a2AA A2df | a2df eA^ce | d2dd ^cc=cc |][K:=f]
P: TRIO.
K: C
[|\
"^>"c4 "_>"B3"_>"A | "^>"G4 "^>"E4 | "^>"A4 "^>"G3"^>"E | "^>"E4 "^>"C4 |\
.d.e.d.e .d.g.g.g | .c.d.c.d .c.g.g.g | .A.B.A.B .A.d.d.d |[1 .G.A.G.A Gddd |[2 .c.G.E.G c4 |]
K: G
[|\
d2dd dAdf | d2dd dAdf | dAdf dAdf | dAdf dAdf |\
d2d2d2d2 | d2d2 "_D.C."^c2=c2 !segno!|]


